icons/1_Primary/Dynadot.svg

<svg width="1024" height="1024" viewBox="0 0 1024 1024" fill="none" xmlns="http://www.w3.org/2000/svg">
<g clip-path="url(#clip0_2_2070)">
<path d="M512 1024C794.77 1024 1024 794.77 1024 512C1024 229.23 794.77 0 512 0C229.23 0 0 229.23 0 512C0 794.77 229.23 1024 512 1024Z" fill="#9ABEFF"/>
<path d="M635.61 350.62L672.49 278.62L582.92 329.55C587.31 301.45 592.58 262.81 600.48 211C404.66 315.5 336.16 423.51 312.48 492.88C311.6 495.51 310.72 497.27 309.85 499.88C297.53 540.3 301 566.64 301 566.64C303.68 680.8 396.76 773 511.79 773C628.58 773 723.42 678.16 723.42 562.25V350.62H635.61ZM618 561.37C618 619.37 570.58 666.75 512.63 666.75C454.68 666.75 407.3 619.33 407.3 561.37C407.3 503.41 454.72 456 512.67 456H618V561.37ZM461.69 561.37C461.69 588.59 484.52 611.42 511.74 611.42C518.314 611.427 524.826 610.137 530.901 607.624C536.976 605.111 542.496 601.424 547.145 596.775C551.794 592.126 555.481 586.606 557.993 580.531C560.506 574.456 561.796 567.945 561.79 561.37C561.796 554.795 560.506 548.284 557.993 542.209C555.481 536.134 551.794 530.614 547.145 525.965C542.496 521.316 536.976 517.629 530.901 515.116C524.826 512.604 518.314 511.313 511.74 511.32C484.57 511.32 461.74 534.15 461.74 561.37H461.69Z" fill="white"/>
</g>
<defs>
<clipPath id="clip0_2_2070">
<rect width="1024" height="1024" fill="white"/>
</clipPath>
</defs>
</svg>

<svg xmlns="http://www.w3.org/2000/svg" viewBox="0 0 1024 1024">
   <circle cx="512" cy="512" r="512" style="fill:#009ddc"/>
   <path d="m635.61 350.62 36.88-72-89.57 50.93c4.39-28.1 9.66-66.74 17.56-118.55-195.82 104.5-264.32 212.51-288 281.88-.88 2.63-1.76 4.39-2.63 7-12.32 40.42-8.85 66.76-8.85 66.76C303.68 680.8 396.76 773 511.79 773c116.79 0 211.63-94.84 211.63-210.75V350.62ZM618 561.37c0 58-47.42 105.38-105.37 105.38S407.3 619.33 407.3 561.37 454.72 456 512.67 456H618Zm-156.31 0c0 27.22 22.83 50.05 50.05 50.05a50 50 0 0 0 50.05-50.05 50 50 0 0 0-50.05-50.05c-27.17 0-50 22.83-50 50.05Z" style="fill:#fff"/>
</svg>
